static/assets/head_icons_png/man/bizi/1028513.svg

<svg xmlns="http://www.w3.org/2000/svg" width="62" height="97"><g transform="translate(-240.3 -141.6)"><path d="M258.3 231.9l-.55-.35q-1-.65-2.25-1.05l-1.1-.4-2.6-.6q-3.2.6-7.4-2.15l.1-.55q1.55-2.15 5.9-.2.9.2 1.95.75 2.6 1.3 5.65 4.25l.3.3m.85.05l-.55-.35 2.6.6q2.5.55 5.35-.8l2.95-2.2.25.05q2.25-1.85 4.15-2.65l2.15-.55q4.45-1.75 5.85.35l.25.55q-4.45 2.5-7.6 1.7l-2.7.5-1.2.15-3.3 3q-1.3.8-2.15.9l-.3-.05h-2.35q-2.45-.7-3.4-1.2" fill="#823909"/><radialGradient id="a" gradientUnits="userSpaceOnUse" gradientTransform="matrix(.00854 .00073 -.0003 .03082 263.05 180.2)" spreadMethod="pad" cx="0" cy="0" r="819.2" fx="0" fy="0"><stop offset=".314" stop-color="#fff" stop-opacity=".431"/><stop offset="1" stop-color="#fff" stop-opacity="0"/></radialGradient><path d="M268.3 180.7q-.15 10.35-1.8 17.5l-1.05 3.75-.35.5q-1.1 2.9-2.45 2.8-1.45-.15-2.5-3.3l-.25-.6q-.55-1.5-1-3.7-1.5-7.4-1.4-17.8.15-10.5 1.85-17.8 1.55-7.05 3.75-6.75 2.3.15 3.8 7.6 1.45 7.45 1.4 17.8" fill="url(#a)"/><radialGradient id="b" gradientUnits="userSpaceOnUse" gradientTransform="matrix(.0066 .00037 -.0004 .0062 261.35 213.7)" spreadMethod="pad" cx="0" cy="0" r="819.2" fx="0" fy="0"><stop offset=".314" stop-color="#fff" stop-opacity=".431"/><stop offset="1" stop-color="#fff" stop-opacity="0"/></radialGradient><path d="M266.35 213.95q-.2 2.05-1.9 3.4-1.55 1.4-3.7 1.25-2.1-.15-3.6-1.8-1.45-1.4-1.3-3.4 0-2.05 1.55-3.45 1.75-1.35 3.95-1.25 2.2.05 3.65 1.55 1.5 1.6 1.35 3.7" fill="url(#b)"/><radialGradient id="c" gradientUnits="userSpaceOnUse" gradientTransform="matrix(.02237 .00069 -.00073 .021 263.75 242.7)" spreadMethod="pad" cx="0" cy="0" r="819.2" fx="0" fy="0"><stop offset="0" stop-color="#f39b61"/><stop offset="1" stop-color="#f8be98"/></radialGradient><path d="M286.8 207.55l-8.7-.9-1.5-6.8.75 8.35q-.5-2.45-.85-5.05-1.55-11.9-.6-26.9.95-18.2 1.15-19.45.35-1.4 13.3-15.2-7.3 24.2-6.05 42.75.6 9.35 1.5 17l.15 1.15.85 5.05" fill="url(#c)"/><radialGradient id="d" gradientUnits="userSpaceOnUse" gradientTransform="matrix(.02237 .00069 -.00073 .021 264.1 239.4)" spreadMethod="pad" cx="0" cy="0" r="819.2" fx="0" fy="0"><stop offset="0" stop-color="#f39b61"/><stop offset="1" stop-color="#f8be98"/></radialGradient><path d="M278.1 206.65l8.7.9-.85-5.05.25.6 2.2 8.5 1.7 7.9.15 1.15q.35 3.65-2.2 5.8-2.5 2.05-7.45 3.65l-5.9 2.15-6.05 4.05q-5.05 3.1-9.8.9-7.6-4.7-14.75-7.1l-1.65-1-.3-.35q-4.05-3.95.8-8.75l.35-.5.6.05q3.8-1.4 9.15 1.85 5.4 3.1 9.4 2.9 3.9-.2 10.7-3.55 6.7-3.4 6.05-8.5l-1.1-5.6M258 231.6q-3.05-2.95-5.65-4.25-1.05-.55-1.95-.75-4.35-1.95-5.9.2l-.1.55q4.2 2.75 7.4 2.15l2.6.6 1.1.4q1.25.4 2.25 1.05l.55.35-.3-.3m4.55 1.55h2.35l.3.05q.85-.1 2.15-.9l3.3-3 1.2-.15 2.7-.5q3.15.8 7.6-1.7l-.25-.55q-1.4-2.1-5.85-.35l-2.15.55q-1.9.8-4.15 2.65l-.25-.05-2.95 2.2q-2.85 1.35-5.35.8l-2.6-.6.55.35q.95.5 3.4 1.2" fill="url(#d)"/><radialGradient id="e" gradientUnits="userSpaceOnUse" gradientTransform="matrix(.01753 -.00237 .00446 .02896 283.3 183)" spreadMethod="pad" cx="0" cy="0" r="819.2" fx="0" fy="0"><stop offset=".337" stop-color="#f9c29f"/><stop offset="1" stop-color="#fedec1" stop-opacity="0"/></radialGradient><path d="M301.5 188.15q-.2 4.75-10.1 8.2-3.2 1.05-5.5 6.7l-.1.1v.1l-.45-.7q-2.15-8.3-2.2-17.55-.1-9.3 1.65-23.45l.3 3.15-.2-3.35q5.8 16.05 12.45 19.35 2.8 1.35 3.35 2 1.05 1.45.8 5.45" fill="url(#e)"/></g></svg>

<?xml version="1.0" encoding="utf-8"?>
<svg version="1.1" id="Layer_1"
xmlns="http://www.w3.org/2000/svg"
xmlns:xlink="http://www.w3.org/1999/xlink"
xmlns:author="http://www.sothink.com"
width="62px" height="97px"
xml:space="preserve">
<g id="478" transform="matrix(1, 0, 0, 1, -240.3, -141.6)">
<path style="fill:#823909;fill-opacity:1" d="M258.3,231.9L257.75 231.55Q256.75 230.9 255.5 230.5L254.4 230.1L251.8 229.5Q248.6 230.1 244.4 227.35L244.5 226.8Q246.05 224.65 250.4 226.6Q251.3 226.8 252.35 227.35Q254.95 228.65 258 231.6L258.3 231.9M259.15,231.95L258.6 231.6L261.2 232.2Q263.7 232.75 266.55 231.4L269.5 229.2L269.75 229.25Q272 227.4 273.9 226.6L276.05 226.05Q280.5 224.3 281.9 226.4L282.15 226.95Q277.7 229.45 274.55 228.65L271.85 229.15L270.65 229.3L267.35 232.3Q266.05 233.1 265.2 233.2L264.9 233.15L262.55 233.15Q260.1 232.45 259.15 231.95" />
<radialGradient
id="RadialGradID_4122" gradientUnits="userSpaceOnUse" gradientTransform="matrix(0.00854492, 0.000732422, -0.000305176, 0.0308228, 263.05, 180.2)" spreadMethod ="pad" cx="0" cy="0" r="819.2" fx="0" fy="0" >
<stop  offset="0.313725"  style="stop-color:#FFFFFF;stop-opacity:0.431373" />
<stop  offset="1"  style="stop-color:#FFFFFF;stop-opacity:0" />
</radialGradient>
<path style="fill:url(#RadialGradID_4122) " d="M268.3,180.7Q268.15 191.05 266.5 198.2L265.45 201.95L265.1 202.45Q264 205.35 262.65 205.25Q261.2 205.1 260.15 201.95L259.9 201.35Q259.35 199.85 258.9 197.65Q257.4 190.25 257.5 179.85Q257.65 169.35 259.35 162.05Q260.9 155 263.1 155.3Q265.4 155.45 266.9 162.9Q268.35 170.35 268.3 180.7" />
<radialGradient
id="RadialGradID_4123" gradientUnits="userSpaceOnUse" gradientTransform="matrix(0.0065918, 0.000366211, -0.000396729, 0.00619507, 261.35, 213.7)" spreadMethod ="pad" cx="0" cy="0" r="819.2" fx="0" fy="0" >
<stop  offset="0.313725"  style="stop-color:#FFFFFF;stop-opacity:0.431373" />
<stop  offset="1"  style="stop-color:#FFFFFF;stop-opacity:0" />
</radialGradient>
<path style="fill:url(#RadialGradID_4123) " d="M266.35,213.95Q266.15 216 264.45 217.35Q262.9 218.75 260.75 218.6Q258.65 218.45 257.15 216.8Q255.7 215.4 255.85 213.4Q255.85 211.35 257.4 209.95Q259.15 208.6 261.35 208.7Q263.55 208.75 265 210.25Q266.5 211.85 266.35 213.95" />
<radialGradient
id="RadialGradID_4124" gradientUnits="userSpaceOnUse" gradientTransform="matrix(0.0223694, 0.000686646, -0.000732422, 0.0209961, 263.75, 242.7)" spreadMethod ="pad" cx="0" cy="0" r="819.2" fx="0" fy="0" >
<stop  offset="0"  style="stop-color:#F39B61;stop-opacity:1" />
<stop  offset="1"  style="stop-color:#F8BE98;stop-opacity:1" />
</radialGradient>
<path style="fill:url(#RadialGradID_4124) " d="M286.8,207.55L278.1 206.65L276.6 199.85L277.35 208.2Q276.85 205.75 276.5 203.15Q274.95 191.25 275.9 176.25Q276.85 158.05 277.05 156.8Q277.4 155.4 290.35 141.6Q283.05 165.8 284.3 184.35Q284.9 193.7 285.8 201.35L285.95 202.5L286.8 207.55" />
<radialGradient
id="RadialGradID_4125" gradientUnits="userSpaceOnUse" gradientTransform="matrix(0.0223694, 0.000686646, -0.000732422, 0.0209961, 264.1, 239.4)" spreadMethod ="pad" cx="0" cy="0" r="819.2" fx="0" fy="0" >
<stop  offset="0"  style="stop-color:#F39B61;stop-opacity:1" />
<stop  offset="1"  style="stop-color:#F8BE98;stop-opacity:1" />
</radialGradient>
<path style="fill:url(#RadialGradID_4125) " d="M278.1,206.65L286.8 207.55L285.95 202.5L286.2 203.1L288.4 211.6L290.1 219.5L290.25 220.65Q290.6 224.3 288.05 226.45Q285.55 228.5 280.6 230.1L274.7 232.25L268.65 236.3Q263.6 239.4 258.85 237.2Q251.25 232.5 244.1 230.1L242.45 229.1L242.15 228.75Q238.1 224.8 242.95 220L243.3 219.5L243.9 219.55Q247.7 218.15 253.05 221.4Q258.45 224.5 262.45 224.3Q266.35 224.1 273.15 220.75Q279.85 217.35 279.2 212.25L278.1 206.65M258,231.6Q254.95 228.65 252.35 227.35Q251.3 226.8 250.4 226.6Q246.05 224.65 244.5 226.8L244.4 227.35Q248.6 230.1 251.8 229.5L254.4 230.1L255.5 230.5Q256.75 230.9 257.75 231.55L258.3 231.9L258 231.6M262.55,233.15L264.9 233.15L265.2 233.2Q266.05 233.1 267.35 232.3L270.65 229.3L271.85 229.15L274.55 228.65Q277.7 229.45 282.15 226.95L281.9 226.4Q280.5 224.3 276.05 226.05L273.9 226.6Q272 227.4 269.75 229.25L269.5 229.2L266.55 231.4Q263.7 232.75 261.2 232.2L258.6 231.6L259.15 231.95Q260.1 232.45 262.55 233.15" />
<radialGradient
id="RadialGradID_4126" gradientUnits="userSpaceOnUse" gradientTransform="matrix(0.0175323, -0.00236511, 0.00445557, 0.0289612, 283.3, 183)" spreadMethod ="pad" cx="0" cy="0" r="819.2" fx="0" fy="0" >
<stop  offset="0.337255"  style="stop-color:#F9C29F;stop-opacity:1" />
<stop  offset="1"  style="stop-color:#FEDEC1;stop-opacity:0" />
</radialGradient>
<path style="fill:url(#RadialGradID_4126) " d="M301.5,188.15Q301.3 192.9 291.4 196.35Q288.2 197.4 285.9 203.05L285.8 203.15L285.8 203.25L285.35 202.55Q283.2 194.25 283.15 185Q283.05 175.7 284.8 161.55L285.1 164.7L284.9 161.35Q290.7 177.4 297.35 180.7Q300.15 182.05 300.7 182.7Q301.75 184.15 301.5 188.15" />
</g>
</svg>
